X:27
T:Maud McQuilan's/ Trip to Durrow
T:Maud McQuillans
M:4/4
K:G
B3c dcBA|GABGD3B|c3d edcB|AGFE D^cdc|
BABc dcBA|GABG DCB,D|CEGE DFA[FD]|GDBA G2dc:|:
BGBd g3f|eccB cBAB|cAce a3g|fdd^c dcBc|
dGBd g3f|ec (3cBc ecge|dBGB cADF|AGGF G2dc:|
T: Trip To Durrow, The
R: reel
M: 4/4
L: 1/8
K: Dmaj
D2DF ADFA|dfed B3c|dBBA dBBA|FADE FE E2|
D2DF ADFA|dfed B3c|dBBA FAdB|AFEG FD D2:|
|:dcde fefg|afdf gfed|(3Bcd ef gebe|gebe gfef|
d2de fefg|afdf gfed|(3Bcd ef gbag|fdec d2de|
fdec d2de|fded B3c|dBBA dBBA|FADE FE E2|
D2DF ADFA|dfed B3c|dBBA FAdB|AFEG FD D2:|

